public/library/vfat-io-icon-dark.svg

<svg class="h-full transition-all group-hover:scale-110" viewBox="0 0 285 216" fill="none" xmlns="http://www.w3.org/2000/svg"><path d="M201.133 3.66666C197.933 5.13333 193.4 8.46666 191 11C188.6 13.4 183.8 16.8667 180.2 18.4667C172.2 22.3333 164.2 30.0667 160.867 37.4C157.4 45.1333 157.533 48.2 161.4 47.2667C167.8 45.6667 183.267 45 187 46.0667C189.533 46.7333 191.133 48.2 191.4 49.9333C191.8 52.2 190.067 53.6667 182.733 57.5333C163.533 67.8 135.4 96.6 114.2 127.933C106.067 139.933 101.4 145.4 94.3333 151C69.8 170.6 37 189.133 7.26665 200.333C3.79999 201.667 0.599988 203.133 0.333321 203.8C-2.33335 207.933 48.2 205.933 72.3333 201C89 197.533 113.8 189.267 128.733 182.333C138.2 177.933 162.467 170.333 167.4 170.333C168.067 170.333 168.467 175 168.467 180.733C168.333 190.733 168.467 191.4 173.533 198.733C176.467 202.867 178.467 206.6 178.2 206.733C177.933 207 165.533 207.8 150.6 208.6C117.933 210.2 113 212.2 137.933 213.8C175.667 216.333 285 214.733 285 211.667C285 210.067 276.2 208.6 265.4 208.467C246.2 208.2 238.2 206.867 238.2 203.933C238.2 202.467 240.2 201.267 242.6 201.267C245 201.267 251.267 199.667 256.467 197.667C261.667 195.667 268.2 192.467 270.867 190.6C273.533 188.733 276.467 187.2 277.4 187.2C278.333 187.2 279.133 184.867 279.133 182C279.133 177.267 278.2 176.8 271.4 178.2C267.4 179.067 262.2 179.8 259.8 179.8C257.4 179.8 253.267 178.867 250.6 177.733C247.933 176.6 244.467 175.667 242.867 175.667C241.267 175.667 238.2 174.467 236.067 173C233.933 171.533 230.867 170.333 229.267 170.333C227.667 170.333 224.6 169.133 222.467 167.667C220.333 166.2 217.267 165 215.667 165C214.067 165 211 163.8 208.867 162.333C206.733 160.867 203.667 159.667 202.067 159.667C200.467 159.667 197.4 158.467 195.267 157C193.133 155.533 190.067 154.333 188.467 154.333C186.867 154.333 183.8 153.133 181.667 151.667C179.533 150.2 176.467 149 174.867 149C173.267 149 170.2 147.8 168.067 146.333C165.933 144.867 162.867 143.667 161.267 143.667C159.667 143.667 156.6 142.467 154.467 141C152.333 139.533 149.267 138.333 147.667 138.333C146.067 138.333 143 137.133 140.867 135.667C138.733 134.2 135.667 133 134.067 133C132.467 133 129.4 131.8 127.267 130.333C125.133 128.867 122.067 127.667 120.467 127.667C118.867 127.667 115.8 126.467 113.667 125C111.533 123.533 108.467 122.333 106.867 122.333C105.267 122.333 102.2 121.133 100.067 119.667C97.9333 118.2 94.8667 117 93.2667 117C91.6667 117 88.6 115.8 86.4667 114.333C84.3333 112.867 81.2667 111.667 79.6667 111.667C78.0667 111.667 75 110.467 72.8667 109C70.7333 107.533 67.6667 106.333 66.0667 106.333C64.4667 106.333 61.4 105.133 59.2667 103.667C57.1333 102.2 54.0667 101 52.4667 101C50.8667 101 47.8 99.8 45.6667 98.3333C43.5333 96.8667 40.4667 95.6667 38.8667 95.6667C37.2667 95.6667 34.2 94.4667 32.0667 93C29.9333 91.5333 26.8667 90.3333 25.2667 90.3333C23.6667 90.3333 20.6 89.1333 18.4667 87.6667C16.3333 86.2 13.2667 85 11.6667 85C10.0667 85 7 83.8 4.86665 82.3333C2.73332 80.8667 -0.333346 79.6667 -1.93335 79.6667C-3.53335 79.6667 -6.60001 78.4667 -8.73335 77C-10.8667 75.5333 -13.9333 74.3333 -15.5333 74.3333C-17.1333 74.3333 -20.2 73.1333 -22.3333 71.6667C-24.4667 70.2 -27.5333 69 -29.1333 69C-30.7333 69 -33.8 67.8 -35.9333 66.3333C-38.0667 64.8667 -41.1333 63.6667 -42.7333 63.6667C-44.3333 63.6667 -47.4 62.4667 -49.5333 61C-51.6667 59.5333 -54.7333 58.3333 -56.3333 58.3333C-57.9333 58.3333 -61 57.1333 -63.1333 55.6667C-65.2667 54.2 -68.3333 53 -69.9333 53C-71.5333 53 -74.6 51.8 -76.7333 50.3333C-78.8667 48.8667 -81.9333 47.6667 -83.5333 47.6667C-85.1333 47.6667 -88.2 46.4667 -90.3333 45C-92.4667 43.5333 -95.5333 42.3333 -97.1333 42.3333C-98.7333 42.3333 -101.8 41.1333 -103.933 39.6667C-106.067 38.2 -109.133 37 -110.733 37C-112.333 37 -115.4 35.8 -117.533 34.3333C-119.667 32.8667 -122.733 31.6667 -124.333 31.6667C-125.933 31.6667 -129 30.4667 -131.133 29C-133.267 27.5333 -136.333 26.3333 -137.933 26.3333C-139.533 26.3333 -142.6 25.1333 -144.733 23.6667C-146.867 22.2 -149.933 21 -151.533 21C-153.133 21 -156.2 19.8 -158.333 18.3333C-160.467 16.8667 -163.533 15.6667 -165.133 15.6667C-166.733 15.6667 -169.8 14.4667 -171.933 13C-174.067 11.5333 -177.133 10.3333 -178.733 10.3333C-180.333 10.3333 -183.4 9.13333 -185.533 7.66666C-187.667 6.19999 -190.733 5 -192.333 5C-193.933 5 -197 3.8 -199.133 2.33333C-201.267 0.866662 -204.333 -0.333338 -205.933 -0.333338C-207.533 -0.333338 -210.6 -1.53334 -212.733 -3C-214.867 -4.46667 -217.933 -5.66667 -219.533 -5.66667C-221.133 -5.66667 -224.2 -6.86667 -226.333 -8.33334C-228.467 -9.80001 -231.533 -11 -233.133 -11C-234.733 -11 -237.8 -12.2 -239.933 -13.6667C-242.067 -15.1333 -245.133 -16.3333 -246.733 -16.3333C-248.333 -16.3333 -251.4 -17.5333 -253.533 -19C-255.667 -20.4667 -258.733 -21.6667 -260.333 -21.6667C-261.933 -21.6667 -265 -22.8667 -267.133 -24.3333C-269.267 -25.8 -272.333 -27 -273.933 -27C-275.533 -27 -278.6 -28.2 -280.733 -29.6667C-282.867 -31.1333 -285.933 -32.3333 -287.533 -32.3333C-289.133 -32.3333 -292.2 -33.5333 -294.333 -35C-296.467 -36.4667 -299.533 -37.6667 -301.133 -37.6667C-302.733 -37.6667 -305.8 -38.8667 -307.933 -40.3333C-310.067 -41.8 -313.133 -43 -314.733 -43C-316.333 -43 -319.4 -44.2 -321.533 -45.6667C-323.667 -47.1333 -326.733 -48.3333 -328.333 -48.3333C-329.933 -48.3333 -333 -49.5333 -335.133 -51C-337.267 -52.4667 -340.333 -53.6667 -341.933 -53.6667C-343.533 -53.6667 -346.6 -54.8667 -348.733 -56.3333C-350.867 -57.8 -353.933 -59 -355.533 -59C-357.133 -59 -360.2 -60.2 -362.333 -61.6667C-364.467 -63.1333 -367.533 -64.3333 -369.133 -64.3333C-370.733 -64.3333 -373.8 -65.5333 -375.933 -67C-378.067 -68.4667 -381.133 -69.6667 -382.733 -69.6667C-384.333 -69.6667 -387.4 -70.8667 -389.533 -72.3333C-391.667 -73.8 -394.733 -75 -396.333 -75C-397.933 -75 -401 -76.2 -403.133 -77.6667C-405.267 -79.1333 -408.333 -80.3333 -409.933 -80.3333C-411.533 -80.3333 -414.6 -81.5333 -416.733 -83C-418.867 -84.4667 -421.933 -85.6667 -423.533 -85.6667C-425.133 -85.6667 -428.2 -86.8667 -430.333 -88.3333C-432.467 -89.8 -435.533 -91 -437.133 -91C-438.733 -91 -441.8 -92.2 -443.933 -93.6667C-446.067 -95.1333 -449.133 -96.3333 -450.733 -96.3333C-452.333 -96.3333 -455.4 -97.5333 -457.533 -99C-459.667 -100.467 -462.733 -101.667 -464.333 -101.667C-465.933 -101.667 -469 -102.867 -471.133 -104.333C-473.267 -105.8 -476.333 -107 -477.933 -107C-479.533 -107 -482.6 -108.2 -484.733 -109.667C-486.867 -111.133 -489.933 -112.333 -491.533 -112.333C-493.133 -112.333 -496.2 -113.533 -498.333 -115C-500.467 -116.467 -503.533 -117.667 -505.133 -117.667C-506.733 -117.667 -509.8 -118.867 -511.933 -120.333C-514.067 -121.8 -517.133 -123 -518.733 -123C-520.333 -123 -523.4 -124.2 -525.533 -125.667C-527.667 -127.133 -530.733 -128.333 -532.333 -128.333C-533.933 -128.333 -537 -129.533 -539.133 -131C-541.267 -132.467 -544.333 -133.667 -545.933 -133.667C-547.533 -133.667 -550.6 -134.867 -552.733 -136.333C-554.867 -137.8 -557.933 -139 -559.533 -139C-561.133 -139 -564.2 -140.2 -566.333 -141.667C-568.467 -143.133 -571.533 -144.333 -573.133 -144.333C-574.733 -144.333 -577.8 -145.533 -579.933 -147C-582.067 -148.467 -585.133 -149.667 -586.733 -149.667C-588.333 -149.667 -591.4 -150.867 -593.533 -152.333C-595.667 -153.8 -598.733 -155 -600.333 -155C-601.933 -155 -605 -156.2 -607.133 -157.667C-609.267 -159.133 -612.333 -160.333 -613.933 -160.333C-615.533 -160.333 -618.6 -161.533 -620.733 -163C-622.867 -164.467 -625.933 -165.667 -627.533 -165.667C-629.133 -165.667 -632.2 -166.867 -634.333 -168.333C-636.467 -169.8 -639.533 -171 -641.133 -171C-642.733 -171 -645.8 -172.2 -647.933 -173.667C-650.067 -175.133 -653.133 -176.333 -654.733 -176.333C-656.333 -176.333 -659.4 -177.533 -661.533 -179C-663.667 -180.467 -666.733 -181.667 -668.333 -181.667C-669.933 -181.667 -673 -182.867 -675.133 -184.333C-677.267 -185.8 -680.333 -187 -681.933 -187C-683.533 -187 -686.6 -188.2 -688.733 -189.667C-690.867 -191.133 -693.933 -192.333 -695.533 -192.333C-697.133 -192.333 -700.2 -193.533 -702.333 -195C-704.467 -196.467 -707.533 -197.667 -709.133 -197.667C-710.733 -197.667 -713.8 -198.867 -715.933 -200.333C-718.067 -201.8 -721.133 -203 -722.733 -203C-724.333 -203 -727.4 -204.2 -729.533 -205.667C-731.667 -207.133 -734.733 -208.333 -736.333 -208.333C-737.933 -208.333 -741 -209.533 -743.133 -211C-745.267 -212.467 -748.333 -213.667 -749.933 -213.667C-751.533 -213.667 -754.6 -214.867 -756.733 -216.333C-758.867 -217.8 -761.933 -219 -763.533 -219C-765.133 -219 -768.2 -220.2 -770.333 -221.667C-772.467 -223.133 -775.533 -224.333 -777.133 -224.333C-778.733 -224.333 -781.8 -225.533 -783.933 -227C-786.067 -228.467 -789.133 -229.667 -790.733 -229.667C-792.333 -229.667 -795.4 -230.867 -797.533 -232.333C-799.667 -233.8 -802.733 -235 -804.333 -235C-805.933 -235 -809 -236.2 -811.133 -237.667C-813.267 -239.133 -816.333 -240.333 -817.933 -240.333C-819.533 -240.333 -822.6 -241.533 -824.733 -243C-826.867 -244.467 -829.933 -245.667 -831.533 -245.667C-833.133 -245.667 -836.2 -246.867 -838.333 -248.333C-840.467 -249.8 -843.533 -251 -845.133 -251C-846.733 -251 -849.8 -252.2 -851.933 -253.667C-854.067 -255.133 -857.133 -256.333 -858.733 -256.333C-860.333 -256.333 -863.4 -257.533 -865.533 -259C-867.667 -260.467 -870.733 -261.667 -872.333 -261.667C-873.933 -261.667 -877 -262.867 -879.133 -264.333C-881.267 -265.8 -884.333 -267 -885.933 -267C-887.533 -267 -890.6 -268.2 -892.733 -269.667C-894.867 -271.133 -897.933 -272.333 -899.533 -272.333C-901.133 -272.333 -904.2 -273.533 -906.333 -275C-908.467 -276.467 -911.533 -277.667 -913.133 -277.667C-914.733 -277.667 -917.8 -278.867 -919.933 -280.333C-922.067 -281.8 -925.133 -283 -926.733 -283C-928.333 -283 -931.4 -284.2 -933.533 -285.667C-935.667 -287.133 -938.733 -288.333 -940.333 -288.333C-941.933 -288.333 -945 -289.533 -947.133 -291C-949.267 -292.467 -952.333 -293.667 -953.933 -293.667C-955.533 -293.667 -958.6 -294.867 -960.733 -296.333C-962.867 -297.8 -965.933 -299 -967.533 -299C-969.133 -299 -972.2 -300.2 -974.333 -301.667C-976.467 -303.133 -979.533 -304.333 -981.133 -304.333C-982.733 -304.333 -985.8 -305.533 -987.933 -307C-990.067 -308.467 -993.133 -309.667 -994.733 -309.667C-996.333 -309.667 -999.4 -310.867 -1001.53 -312.333C-1003.67 -313.8 -1006.73 -315 -1008.33 -315C-1009.93 -315 -1013 -316.2 -1015.13 -317.667C-1017.27 -319.133 -1020.33 -320.333 -1021.93 -320.333C-1023.53 -320.333 -1026.6 -321.533 -1028.73 -323C-1030.87 -324.467 -1033.93 -325.667 -1035.53 -325.667C-1037.13 -325.667 -1040.2 -326.867 -1042.33 -328.333C-1044.47 -329.8 -1047.53 -331 -1049.13 -331C-1050.73 -331 -1053.8 -332.2 -1055.93 -333.667C-1058.07 -335.133 -1061.13 -336.333 -1062.73 -336.333C-1064.33 -336.333 -1067.4 -337.533 -1069.53 -339C-1071.67 -340.467 -1074.73 -341.667 -1076.33 -341.667C-1077.93 -341.667 -1081 -342.867 -1083.13 -344.333C-1085.27 -345.8 -1088.33 -347 -1089.93 -347C-1091.53 -347 -1094.6 -348.2 -1096.73 -349.667C-1098.87 -351.133 -1101.93 -352.333 -1103.53 -352.333C-1105.13 -352.333 -1108.2 -353.533 -1110.33 -355C-1112.47 -356.467 -1115.53 -357.667 -1117.13 -357.667C-1118.73 -357.667 -1121.8 -358.867 -1123.93 -360.333C-1126.07 -361.8 -1129.13 -363 -1130.73 -363C-1132.33 -363 -1135.4 -364.2 -1137.53 -365.667C-1139.67 -367.133 -1142.73 -368.333 -1144.33 -368.333C-1145.93 -368.333 -1149 -369.533 -1151.13 -371C-1153.27 -372.467 -1156.33 -373.667 -1157.93 -373.667C-1159.53 -373.667 -1162.6 -374.867 -1164.73 -376.333C-1166.87 -377.8 -1169.93 -379 -1171.53 -379C-1173.13 -379 -1176.2 -380.2 -1178.33 -381.667C-1180.47 -383.133 -1183.53 -384.333 -1185.13 -384.333C-1186.73 -384.333 -1189.8 -385.533 -1191.93 -387C-1194.07 -388.467 -1197.13 -389.667 -1198.73 -389.667C-1200.33 -389.667 -1203.4 -390.867 -1205.53 -392.333C-1207.67 -393.8 -1210.73 -395 -1212.33 -395C-1213.93 -395 -1217 -396.2 -1219.13 -397.667C-1221.27 -399.133 -1224.33 -400.333 -1225.93 -400.333C-1227.53 -400.333 -1230.6 -401.533 -1232.73 -403C-1234.87 -404.467 -1237.93 -405.667 -1239.53 -405.667C-1241.13 -405.667 -1244.2 -406.867 -1246.33 -408.333C-1248.47 -409.8 -1251.53 -411 -1253.13 -411C-1254.73 -411 -1257.8 -412.2 -1259.93 -413.667C-1262.07 -415.133 -1265.13 -416.333 -1266.73 -416.333C-1268.33 -416.333 -1271.4 -417.533 -1273.53 -419C-1275.67 -420.467 -1278.73 -421.667 -1280.33 -421.667C-1281.93 -421.667 -1285 -422.867 -1287.13 -424.333C-1289.27 -425.8 -1292.33 -427 -1293.93 -427C-1295.53 -427 -1298.6 -428.2 -1300.73 -429.667C-1302.87 -431.133 -1305.93 -432.333 -1307.53 -432.333C-1309.13 -432.333 -1312.2 -433.533 -1314.33 -435C-1316.47 -436.467 -1319.53 -437.667 -1321.13 -437.667C-1322.73 -437.667 -1325.8 -438.867 -1327.93 -440.333C-1330.07 -441.8 -1333.13 -443 -1334.73 -443C-1336.33 -443 -1339.4 -444.2 -1341.53 -445.667C-1343.67 -447.133 -1346.73 -448.333 -1348.33 -448.333C-1349.93 -448.333 -1353 -449.533 -1355.13 -451C-1357.27 -452.467 -1360.33 -453.667 -1361.93 -453.667C-1363.53 -453.667 -1366.6 -454.867 -1368.73 -456.333C-1370.87 -457.8 -1373.93 -459 -1375.53 -459C-1377.13 -459 -1380.2 -460.2 -1382.33 -461.667C-1384.47 -463.133 -1387.53 -464.333 -1389.13 -464.333C-1390.73 -464.333 -1393.8 -465.533 -1395.93 -467C-1398.07 -468.467 -1401.13 -469.667 -1402.73 -469.667C-1404.33 -469.667 -1407.4 -470.867 -1409.53 -472.333C-1411.67 -473.8 -1414.73 -475 -1416.33 -475C-1417.93 -475 -1421 -476.2 -1423.13 -477.667C-1425.27 -479.133 -1428.33 -480.333 -1429.93 -480.333C-1431.53 -480.333 -1434.6 -481.533 -1436.73 -483C-1438.87 -484.467 -1441.93 -485.667 -1443.53 -485.667C-1445.13 -485.667 -1448.2 -486.867 -1450.33 -488.333C-1452.47 -489.8 -1455.53 -491 -1457.13 -491C-1458.73 -491 -1461.8 -492.2 -1463.93 -493.667C-1466.07 -495.133 -1469.13 -496.333 -1470.73 -496.333C-1472.33 -496.333 -1475.4 -497.533 -1477.53 -499C-1479.67 -500.467 -1482.73 -501.667 -1484.33 -501.667C-1485.93 -501.667 -1489 -1489 -1489 -1489" fill="white"/></svg>

<svg xmlns="http://www.w3.org/2000/svg" fill="none" class="h-full transition-all group-hover:scale-110" viewBox="0 0 285 216"><path fill="#fff" d="M201.133 3.667C197.933 5.133 193.4 8.467 191 11c-2.4 2.4-7.2 5.867-10.8 7.467-8 3.866-16 11.6-19.333 18.933-3.467 7.733-3.334 10.8.533 9.867 6.4-1.6 21.867-2.267 25.6-1.2 2.533.666 4.133 2.133 4.4 3.866.4 2.267-1.333 3.734-8.667 7.6-19.2 10.267-47.333 39.067-68.533 70.4-8.133 12-12.8 17.467-19.867 23.067C69.8 170.6 37 189.133 7.267 200.333 3.8 201.667.6 203.133.333 203.8c-2.666 4.133 47.867 2.133 72-2.8 16.667-3.467 41.467-11.733 56.4-18.667 9.467-4.4 33.734-12 38.667-12 .667 0 1.067 4.667 1.067 10.4-.134 10 0 10.667 5.066 18 2.934 4.134 4.934 7.867 4.667 8-.267.267-12.667 1.067-27.6 1.867-32.667 1.6-37.6 3.6-12.667 5.2 37.734 2.533 147.067.933 147.067-2.133 0-1.6-8.8-3.067-19.6-3.2-19.2-.267-27.2-1.6-27.2-4.534 0-1.466 2-2.666 4.4-2.666s8.667-1.6 13.867-3.6 11.733-5.2 14.4-7.067 5.6-3.4 6.533-3.4 1.733-2.333 1.733-5.2c0-4.733-.933-5.2-7.733-3.8-4 .867-9.2 1.6-11.6 1.6s-6.533-.933-9.2-2.067c-2.667-1.133-6.133-2.066-7.733-2.066s-4.667-1.2-6.8-2.667-5.2-2.667-6.8-2.667-4.667-1.2-6.8-2.666c-2.134-1.467-5.2-2.667-6.8-2.667s-4.667-1.2-6.8-2.667-5.2-2.666-6.8-2.666-4.667-1.2-6.8-2.667-5.2-2.667-6.8-2.667-4.667-1.2-6.8-2.666c-2.134-1.467-5.2-2.667-6.8-2.667s-4.667-1.2-6.8-2.667-5.2-2.666-6.8-2.666-4.667-1.2-6.8-2.667-5.2-2.667-6.8-2.667-4.667-1.2-6.8-2.666c-2.134-1.467-5.2-2.667-6.8-2.667s-4.667-1.2-6.8-2.667-5.2-2.666-6.8-2.666-4.667-1.2-6.8-2.667-5.2-2.667-6.8-2.667-4.667-1.2-6.8-2.666c-2.134-1.467-5.2-2.667-6.8-2.667s-4.667-1.2-6.8-2.667-5.2-2.666-6.8-2.666-4.667-1.2-6.8-2.667-5.2-2.667-6.8-2.667-4.667-1.2-6.8-2.666c-2.134-1.467-5.2-2.667-6.8-2.667s-4.667-1.2-6.8-2.667-5.2-2.666-6.8-2.666-4.667-1.2-6.8-2.667-5.2-2.667-6.8-2.667-4.667-1.2-6.8-2.666C16.333 86.2 13.267 85 11.667 85S7 83.8 4.867 82.333s-5.2-2.666-6.8-2.666-4.667-1.2-6.8-2.667-5.2-2.667-6.8-2.667-4.667-1.2-6.8-2.666c-2.134-1.467-5.2-2.667-6.8-2.667s-4.667-1.2-6.8-2.667-5.2-2.666-6.8-2.666-4.667-1.2-6.8-2.667-5.2-2.667-6.8-2.667-4.667-1.2-6.8-2.666c-2.134-1.467-5.2-2.667-6.8-2.667s-4.667-1.2-6.8-2.667-5.2-2.666-6.8-2.666-4.667-1.2-6.8-2.667-5.2-2.667-6.8-2.667-4.667-1.2-6.8-2.666c-2.134-1.467-5.2-2.667-6.8-2.667s-4.667-1.2-6.8-2.667-5.2-2.666-6.8-2.666-4.667-1.2-6.8-2.667-5.2-2.667-6.8-2.667-4.667-1.2-6.8-2.666c-2.134-1.467-5.2-2.667-6.8-2.667s-4.667-1.2-6.8-2.667-5.2-2.666-6.8-2.666-4.667-1.2-6.8-2.667-5.2-2.667-6.8-2.667-4.667-1.2-6.8-2.666c-2.134-1.467-5.2-2.667-6.8-2.667s-4.667-1.2-6.8-2.667-5.2-2.666-6.8-2.666-4.667-1.2-6.8-2.667-5.2-2.667-6.8-2.667-4.667-1.2-6.8-2.666c-2.134-1.467-5.2-2.667-6.8-2.667s-4.667-1.2-6.8-2.667-5.2-2.666-6.8-2.666-4.667-1.2-6.8-2.667-5.2-2.667-6.8-2.667-4.667-1.2-6.8-2.666c-2.134-1.467-5.2-2.667-6.8-2.667s-4.667-1.2-6.8-2.667-5.2-2.666-6.8-2.666-4.667-1.2-6.8-2.667-5.2-2.667-6.8-2.667-4.667-1.2-6.8-2.666c-2.134-1.467-5.2-2.667-6.8-2.667s-4.667-1.2-6.8-2.667-5.2-2.666-6.8-2.666-4.667-1.2-6.8-2.667-5.2-2.667-6.8-2.667-4.667-1.2-6.8-2.666c-2.134-1.467-5.2-2.667-6.8-2.667s-4.667-1.2-6.8-2.667-5.2-2.666-6.8-2.666-4.667-1.2-6.8-2.667-5.2-2.667-6.8-2.667-4.667-1.2-6.8-2.666c-2.134-1.467-5.2-2.667-6.8-2.667s-4.667-1.2-6.8-2.667-5.2-2.666-6.8-2.666-4.667-1.2-6.8-2.667-5.2-2.667-6.8-2.667-4.667-1.2-6.8-2.666c-2.134-1.467-5.2-2.667-6.8-2.667s-4.667-1.2-6.8-2.667-5.2-2.666-6.8-2.666-4.667-1.2-6.8-2.667-5.2-2.667-6.8-2.667-4.667-1.2-6.8-2.666c-2.134-1.467-5.2-2.667-6.8-2.667s-4.667-1.2-6.8-2.667-5.2-2.666-6.8-2.666-4.667-1.2-6.8-2.667-5.2-2.667-6.8-2.667-4.667-1.2-6.8-2.666c-2.134-1.467-5.2-2.667-6.8-2.667s-4.667-1.2-6.8-2.667-5.2-2.666-6.8-2.666-4.667-1.2-6.8-2.667-5.2-2.667-6.8-2.667-4.667-1.2-6.8-2.666c-2.134-1.467-5.2-2.667-6.8-2.667s-4.667-1.2-6.8-2.667-5.2-2.666-6.8-2.666-4.667-1.2-6.8-2.667-5.2-2.667-6.8-2.667-4.667-1.2-6.8-2.666c-2.134-1.467-5.2-2.667-6.8-2.667s-4.667-1.2-6.8-2.667-5.2-2.666-6.8-2.666-4.667-1.2-6.8-2.667-5.2-2.667-6.8-2.667-4.667-1.2-6.8-2.666c-2.134-1.467-5.2-2.667-6.8-2.667s-4.667-1.2-6.8-2.667-5.2-2.666-6.8-2.666-4.667-1.2-6.8-2.667-5.2-2.667-6.8-2.667-4.667-1.2-6.8-2.666c-2.134-1.467-5.2-2.667-6.8-2.667s-4.667-1.2-6.8-2.667-5.2-2.666-6.8-2.666-4.667-1.2-6.8-2.667-5.2-2.667-6.8-2.667-4.667-1.2-6.8-2.666c-2.134-1.467-5.2-2.667-6.8-2.667s-4.667-1.2-6.8-2.667-5.2-2.666-6.8-2.666-4.667-1.2-6.8-2.667-5.2-2.667-6.8-2.667-4.667-1.2-6.8-2.666c-2.134-1.467-5.2-2.667-6.8-2.667s-4.667-1.2-6.8-2.667-5.2-2.666-6.8-2.666-4.667-1.2-6.8-2.667-5.2-2.667-6.8-2.667-4.667-1.2-6.8-2.666c-2.134-1.467-5.2-2.667-6.8-2.667s-4.667-1.2-6.8-2.667-5.2-2.666-6.8-2.666-4.667-1.2-6.8-2.667-5.2-2.667-6.8-2.667-4.667-1.2-6.8-2.666c-2.134-1.467-5.2-2.667-6.8-2.667s-4.667-1.2-6.8-2.667-5.2-2.666-6.8-2.666-4.667-1.2-6.8-2.667-5.2-2.667-6.8-2.667-4.667-1.2-6.8-2.666c-2.134-1.467-5.2-2.667-6.8-2.667s-4.667-1.2-6.8-2.667-5.2-2.666-6.8-2.666-4.667-1.2-6.8-2.667-5.2-2.667-6.8-2.667-4.667-1.2-6.8-2.666c-2.134-1.467-5.2-2.667-6.8-2.667s-4.667-1.2-6.8-2.667-5.2-2.666-6.8-2.666-4.667-1.2-6.8-2.667-5.2-2.667-6.8-2.667-4.667-1.2-6.8-2.666c-2.134-1.467-5.2-2.667-6.8-2.667s-4.667-1.2-6.8-2.667-5.2-2.666-6.8-2.666-4.667-1.2-6.8-2.667-5.2-2.667-6.8-2.667-4.667-1.2-6.797-2.666c-2.14-1.467-5.2-2.667-6.8-2.667s-4.67-1.2-6.8-2.667c-2.14-1.466-5.2-2.666-6.8-2.666s-4.67-1.2-6.8-2.667c-2.14-1.467-5.2-2.667-6.8-2.667s-4.67-1.2-6.8-2.666c-2.14-1.467-5.2-2.667-6.8-2.667s-4.67-1.2-6.8-2.667c-2.14-1.466-5.2-2.666-6.8-2.666s-4.67-1.2-6.8-2.667c-2.14-1.467-5.2-2.667-6.8-2.667s-4.67-1.2-6.8-2.666c-2.14-1.467-5.2-2.667-6.8-2.667s-4.67-1.2-6.8-2.667c-2.14-1.466-5.2-2.666-6.8-2.666s-4.67-1.2-6.8-2.667c-2.14-1.467-5.2-2.667-6.8-2.667s-4.67-1.2-6.8-2.666c-2.14-1.467-5.2-2.667-6.8-2.667s-4.67-1.2-6.8-2.667c-2.14-1.466-5.2-2.666-6.8-2.666s-4.67-1.2-6.8-2.667c-2.14-1.467-5.2-2.667-6.8-2.667s-4.67-1.2-6.8-2.666c-2.14-1.467-5.2-2.667-6.8-2.667s-4.67-1.2-6.8-2.667c-2.14-1.466-5.2-2.666-6.8-2.666s-4.67-1.2-6.8-2.667c-2.14-1.467-5.2-2.667-6.8-2.667s-4.67-1.2-6.8-2.666c-2.14-1.467-5.2-2.667-6.8-2.667s-4.67-1.2-6.8-2.667c-2.14-1.466-5.2-2.666-6.8-2.666s-4.67-1.2-6.8-2.667c-2.14-1.467-5.2-2.667-6.8-2.667s-4.67-1.2-6.8-2.666c-2.14-1.467-5.2-2.667-6.8-2.667s-4.67-1.2-6.8-2.667c-2.14-1.466-5.2-2.666-6.8-2.666s-4.67-1.2-6.8-2.667c-2.14-1.467-5.2-2.667-6.8-2.667s-4.67-1.2-6.8-2.666c-2.14-1.467-5.2-2.667-6.8-2.667s-4.67-1.2-6.8-2.667c-2.14-1.466-5.2-2.666-6.8-2.666s-4.67-1.2-6.8-2.667c-2.14-1.467-5.2-2.667-6.8-2.667s-4.67-1.2-6.8-2.666c-2.14-1.467-5.2-2.667-6.8-2.667s-4.67-1.2-6.8-2.667c-2.14-1.466-5.2-2.666-6.8-2.666s-4.67-1.2-6.8-2.667c-2.14-1.467-5.2-2.667-6.8-2.667s-4.67-1.2-6.8-2.666c-2.14-1.467-5.2-2.667-6.8-2.667s-4.67-1.2-6.8-2.667c-2.14-1.466-5.2-2.666-6.8-2.666s-4.67-1.2-6.8-2.667c-2.14-1.467-5.2-2.667-6.8-2.667s-4.67-1.2-6.8-2.666c-2.14-1.467-5.2-2.667-6.8-2.667s-4.67-1.2-6.8-2.667c-2.14-1.466-5.2-2.666-6.8-2.666s-4.67-1.2-6.8-2.667c-2.14-1.467-5.2-2.667-6.8-2.667s-4.67-1.2-6.8-2.666c-2.14-1.467-5.2-2.667-6.8-2.667s-4.67-1.2-6.8-2.667c-2.14-1.466-5.2-2.666-6.8-2.666s-4.67-1.2-6.8-2.667c-2.14-1.467-5.2-2.667-6.8-2.667S-1489-1489-1489-1489"/></svg>
